X:2327
T:Yn Colbagh Breck
T:The Togher Song 
C:Robert Kerruish, Ballavelt, Maughold 
C:Traditional
O:Isle of Man
Z:Collected by Mona Douglas
B:Kiaull Vannin 327 
L:1/8
M:6/8 
Q:160 
K:D 
F2G|A2A BAG|F2F (DF)G|G2E D2C|D3-D F G|A2d d2d|d2A A2A|B2G F2G|A3 F2G| 
A2A (BA)G|F2F (DF)G|G2E D2C|D3 E2F|G2A (Bc)d|d2A (B F) A|A2F D2D|D3|| 

